packages/tokens/icons/receipt1/size32Px.svg

<svg viewBox="0 0 32 32" fill="none" xmlns="http://www.w3.org/2000/svg" width="1em" height="1em"><path d="M7.5 5C7.5 4.72386 7.72386 4.5 8 4.5L24 4.5C24.2761 4.5 24.5 4.72386 24.5 5L24.5 27.523C24.5 27.8767 24.1427 28.1186 23.8143 27.9872L20.6026 26.7025C20.2048 26.5434 19.758 26.562 19.3747 26.7536L16.2236 28.3292C16.0828 28.3996 15.9172 28.3996 15.7764 28.3292L12.6253 26.7536C12.242 26.562 11.7952 26.5434 11.3974 26.7025L8.1857 27.9872L8.37139 28.4514L8.1857 27.9872C7.85726 28.1186 7.5 27.8767 7.5 27.523L7.5 5Z" stroke="currentColor" stroke-linecap="round" stroke-linejoin="round"/><path d="M10.5 9.5H12.5M15.5 9.5L21.5 9.5M10.5 12.5H12.5M15.5 12.5L21.5 12.5M10.5 15.5H12.5M15.5 15.5L21.5 15.5M10.5 18.5H12.5M15.5 18.5H21.5M10.5 21.5H12.5M15.5 21.5H21.5" stroke="currentColor" stroke-linecap="round"/></svg>

<svg xmlns="http://www.w3.org/2000/svg" fill="none" viewBox="0 0 32 32" width="1em" height="1em"><path stroke="currentColor" stroke-linecap="round" stroke-linejoin="round" d="M7.5 5a.5.5 0 0 1 .5-.5h16a.5.5 0 0 1 .5.5v22.523a.5.5 0 0 1-.686.464l-3.211-1.284a1.5 1.5 0 0 0-1.228.05l-3.151 1.576a.5.5 0 0 1-.448 0l-3.15-1.575a1.5 1.5 0 0 0-1.229-.052l-3.211 1.285.185.464-.185-.464a.5.5 0 0 1-.686-.464V5Z"/><path stroke="currentColor" stroke-linecap="round" d="M10.5 9.5h2m3 0h6m-11 3h2m3 0h6m-11 3h2m3 0h6m-11 3h2m3 0h6m-11 3h2m3 0h6"/></svg>
